public/svg/telegram.svg

<svg width="24" height="25" viewBox="0 0 24 25" fill="none" xmlns="http://www.w3.org/2000/svg">
<path d="M12 24.3845C18.6274 24.3845 24 19.0119 24 12.3845C24 5.75711 18.6274 0.384521 12 0.384521C5.37259 0.384521 0 5.75711 0 12.3845C0 19.0119 5.37259 24.3845 12 24.3845Z" fill="white"/>
<path d="M5.1443 12.1217C5.1443 12.1217 11.0885 9.59287 13.15 8.7024C13.9403 8.34624 16.6203 7.20643 16.6203 7.20643C16.6203 7.20643 17.8573 6.7078 17.7542 7.9188C17.7198 8.41747 17.445 10.1627 17.1701 12.0505C16.7578 14.7219 16.3111 17.6425 16.3111 17.6425C16.3111 17.6425 16.2424 18.4618 15.6583 18.6042C15.0742 18.7467 14.1121 18.1056 13.9403 17.9631C13.8028 17.8563 11.3633 16.2534 10.47 15.4698C10.2295 15.2561 9.95462 14.8287 10.5043 14.3301C11.7413 13.1547 13.2187 11.6943 14.1121 10.7683C14.5244 10.3408 14.9367 9.34353 13.2187 10.5545C10.7792 12.2998 8.37408 13.9383 8.37408 13.9383C8.37408 13.9383 7.82432 14.2944 6.79355 13.9739C5.76273 13.6533 4.56015 13.2259 4.56015 13.2259C4.56015 13.2259 3.73557 12.6916 5.1443 12.1217Z" fill="#34AADF"/>
</svg>

<svg xmlns="http://www.w3.org/2000/svg" width="24" height="25" fill="none"><path fill="#fff" d="M12 24.385c6.627 0 12-5.373 12-12 0-6.628-5.373-12-12-12s-12 5.372-12 12c0 6.627 5.373 12 12 12"/><path fill="#34AADF" d="M5.144 12.122s5.945-2.53 8.006-3.42c.79-.356 3.47-1.496 3.47-1.496s1.237-.498 1.134.713c-.034.498-.309 2.244-.584 4.132-.412 2.67-.859 5.591-.859 5.591s-.069.82-.653.962-1.546-.498-1.718-.64c-.137-.108-2.577-1.71-3.47-2.494-.24-.214-.515-.641.034-1.14a134 134 0 0 0 3.608-3.562c.412-.427.825-1.424-.893-.213-2.44 1.745-4.845 3.383-4.845 3.383s-.55.356-1.58.036-2.234-.748-2.234-.748-.824-.534.584-1.104"/></svg>
